assets/images/icons/src/bell-slash.svg

<?xml version="1.0" encoding="utf-8"?>
<!-- Generated by IcoMoon.io -->
<!DOCTYPE svg PUBLIC "-//W3C//DTD SVG 1.1//EN" "http://www.w3.org/Graphics/SVG/1.1/DTD/svg11.dtd">
<svg version="1.1" xmlns="http://www.w3.org/2000/svg" xmlns:xlink="http://www.w3.org/1999/xlink" width="16" height="14" viewBox="0 0 16 14">
<path fill="#444444" d="M12.172 6.656q0.477 2.781 2.328 4.344 0 0.406-0.297 0.703t-0.703 0.297h-3.5q0 0.828-0.586 1.414t-1.414 0.586-1.41-0.582-0.59-1.41zM8 13.375q0.125 0 0.125-0.125t-0.125-0.125q-0.461 0-0.793-0.332t-0.332-0.793q0-0.125-0.125-0.125t-0.125 0.125q0 0.57 0.402 0.973t0.973 0.402zM15.828 0.875q0.062 0.078 0.059 0.184t-0.082 0.176l-14.625 12.672q-0.078 0.062-0.184 0.055t-0.168-0.086l-0.656-0.75q-0.062-0.078-0.059-0.184t0.082-0.168l1.453-1.258q-0.148-0.25-0.148-0.516 0.391-0.328 0.711-0.688t0.664-0.934 0.582-1.238 0.391-1.609 0.152-2.031q0-1.187 0.914-2.207t2.398-1.238q-0.062-0.148-0.062-0.305 0-0.312 0.219-0.531t0.531-0.219 0.531 0.219 0.219 0.531q0 0.156-0.062 0.305 0.969 0.141 1.711 0.645t1.156 1.23l3.266-2.836q0.078-0.062 0.184-0.055t0.168 0.086z"></path>
</svg>

<svg xmlns="http://www.w3.org/2000/svg" width="16" height="14" viewBox="0 0 16 14"><path fill="#444" d="M12.172 6.656Q12.649 9.437 14.5 11q0 .406-.297.703T13.5 12H10q0 .828-.586 1.414T8 14t-1.41-.582-.59-1.41zM8 13.375q.125 0 .125-.125T8 13.125q-.461 0-.793-.332T6.875 12q0-.125-.125-.125T6.625 12q0 .57.402.973t.973.402zm7.828-12.5q.062.078.059.184t-.082.176L1.18 13.907q-.078.062-.184.055t-.168-.086l-.656-.75q-.062-.078-.059-.184t.082-.168l1.453-1.258Q1.5 11.266 1.5 11q.391-.328.711-.688t.664-.934.582-1.238.391-1.609T4 4.5q0-1.187.914-2.207t2.398-1.238Q7.25.907 7.25.75q0-.312.219-.531T8 0t.531.219.219.531q0 .156-.062.305.969.141 1.711.645t1.156 1.23L14.821.094q.078-.062.184-.055t.168.086z"/></svg>
